dist/assets/briefcase_image.svg

<svg width="50" height="50" viewBox="0 0 50 50" fill="none" xmlns="http://www.w3.org/2000/svg">
<g id="Frame 1000008703">
<rect width="50" height="50" rx="12" fill="#EBE8FD"/>
<path id="Vector" d="M33.1677 18.4956H29.0796C28.8592 16.4981 27.6597 15 26.142 15H22.9106C22.0783 15 21.295 15.4494 20.7319 16.2984C20.3158 16.8976 20.0465 17.6717 19.9731 18.4956H15.8849C14.8568 18.4956 14 19.3695 14 20.4682V33.0275C14 34.1011 14.8323 35 15.8849 35H33.1677C34.1958 35 35.0526 34.1261 35.0526 33.0275V20.4682C35.0526 19.3695 34.2203 18.4956 33.1677 18.4956ZM26.1175 24.2385H22.9351C22.2007 24.2385 21.5887 24.8876 21.5887 25.6866V26.4107C17.4272 25.437 15.5177 24.563 15.224 24.1635V20.6679C15.224 20.2934 15.5667 19.9938 15.9829 19.9938H33.0698C33.4859 19.9938 33.8286 20.2934 33.8286 20.6679V24.1386C33.5349 24.5381 31.6255 25.412 27.4639 26.4107V25.6866C27.4639 24.8876 26.8519 24.2385 26.1175 24.2385ZM21.7356 17.2472C21.9315 16.9725 22.3476 16.4981 22.9106 16.4981H26.142C26.9743 16.4981 27.6842 17.4719 27.8556 18.7453H21.1971C21.2705 18.171 21.4663 17.6467 21.7356 17.2472ZM33.1922 33.7266H15.8605C15.5177 33.7266 15.224 33.427 15.224 33.0774V25.6117C16.2766 26.161 18.186 26.8352 21.6867 27.6092C21.907 29.0574 23.1065 30.1561 24.5753 30.1561C26.0196 30.1561 27.2191 29.0574 27.4149 27.6092C30.9155 26.8352 32.825 26.161 33.8531 25.6117V33.0774C33.8286 33.427 33.5349 33.7266 33.1922 33.7266Z" fill="#6548EE"/>
</g>
</svg>

<svg xmlns="http://www.w3.org/2000/svg" width="50" height="50" fill="none"><rect width="50" height="50" fill="#EBE8FD" rx="12"/><path fill="#6548EE" d="M33.168 18.496H29.08C28.86 16.498 27.66 15 26.142 15h-3.231c-.833 0-1.616.45-2.18 1.298-.415.6-.684 1.374-.758 2.198h-4.088c-1.028 0-1.885.873-1.885 1.972v12.56C14 34.1 14.832 35 15.885 35h17.283c1.028 0 1.885-.874 1.885-1.972v-12.56c0-1.099-.833-1.972-1.885-1.972Zm-7.05 5.742h-3.183c-.734 0-1.346.65-1.346 1.449v.724c-4.162-.974-6.071-1.848-6.365-2.248v-3.495c0-.375.343-.674.759-.674H33.07c.416 0 .759.3.759.674v3.47c-.294.4-2.204 1.274-6.365 2.273v-.724c0-.8-.612-1.449-1.346-1.449Zm-4.382-6.99c.195-.276.612-.75 1.175-.75h3.231c.832 0 1.542.974 1.714 2.247h-6.659c.073-.574.27-1.098.539-1.498Zm11.456 16.479H15.861a.655.655 0 0 1-.637-.65v-7.465c1.053.549 2.962 1.223 6.463 1.997.22 1.448 1.42 2.547 2.888 2.547 1.445 0 2.644-1.099 2.84-2.547 3.5-.774 5.41-1.448 6.438-1.997v7.465c-.024.35-.318.65-.66.65Z"/></svg>
